img/order-group-tab.svg

<svg width="654" height="48" viewBox="0 0 654 48" fill="none" xmlns="http://www.w3.org/2000/svg">
<line x1="35.1633" y1="22.9938" x2="508.177" y2="22.9937" stroke="white" stroke-width="3"/>
<g filter="url(#filter0_d)">
<circle cx="23.7825" cy="23.7825" r="17.7825" transform="rotate(-90 23.7825 23.7825)" fill="white"/>
</g>
<g filter="url(#filter1_d)">
<circle cx="178.134" cy="23.7825" r="17.7825" transform="rotate(-90 178.134 23.7825)" fill="white"/>
</g>
<g filter="url(#filter2_d)">
<circle cx="353.825" cy="23.7825" r="17.7825" transform="rotate(-90 353.825 23.7825)" fill="white"/>
</g>
<path d="M18.0409 20.975L17.1534 17.9875C18.2868 17.4375 19.4201 16.8917 20.5534 16.35C21.6868 15.8 22.8201 15.25 23.9534 14.7L23.8159 18.1375C22.8493 18.6125 21.8868 19.0875 20.9284 19.5625C19.9701 20.0292 19.0076 20.5 18.0409 20.975ZM21.9659 32C21.9659 31.1083 21.9659 30.2458 21.9659 29.4125C21.9659 28.5708 21.9659 27.6333 21.9659 26.6V21.55C21.9659 20.6917 21.9659 19.8375 21.9659 18.9875C21.9659 18.1292 21.9659 17.2667 21.9659 16.4L23.9534 14.7L25.8159 14.8125C25.8159 15.7875 25.8159 16.775 25.8159 17.775C25.8159 18.7667 25.8159 19.775 25.8159 20.8V26.6C25.8159 27.6333 25.8159 28.5708 25.8159 29.4125C25.8159 30.2458 25.8159 31.1083 25.8159 32H21.9659Z" fill="black"/>
<path d="M172.293 33V30.4C172.751 30.0083 173.206 29.6208 173.656 29.2375C174.114 28.8542 174.572 28.4708 175.031 28.0875C176.097 27.1875 177.014 26.3458 177.781 25.5625C178.547 24.7792 179.135 24.025 179.543 23.3C179.951 22.575 180.156 21.8458 180.156 21.1125C180.156 20.3125 179.931 19.7125 179.481 19.3125C179.031 18.9042 178.351 18.7 177.443 18.7C177.051 18.7 176.647 18.7458 176.231 18.8375C175.822 18.9208 175.41 19.0458 174.993 19.2125C174.576 19.3708 174.16 19.5583 173.743 19.775C173.335 19.9917 172.935 20.2333 172.543 20.5L172.206 16.825C172.589 16.6417 173.01 16.4708 173.468 16.3125C173.935 16.1458 174.426 16 174.943 15.875C175.468 15.7417 176.006 15.6375 176.556 15.5625C177.114 15.4875 177.672 15.45 178.231 15.45C179.497 15.45 180.568 15.6583 181.443 16.075C182.326 16.4833 182.993 17.075 183.443 17.85C183.901 18.6167 184.131 19.5375 184.131 20.6125C184.131 21.4958 183.947 22.375 183.581 23.25C183.214 24.1167 182.656 24.9875 181.906 25.8625C181.164 26.7375 180.222 27.6208 179.081 28.5125L176.618 30.45L176.143 29.7H179.243C180.093 29.7 180.943 29.7 181.793 29.7C182.643 29.7 183.489 29.7 184.331 29.7V33H172.293Z" fill="black"/>
<path d="M354.047 32.325C353.447 32.325 352.859 32.2917 352.284 32.225C351.718 32.1583 351.172 32.0667 350.647 31.95C350.13 31.825 349.647 31.6833 349.197 31.525C348.755 31.3667 348.355 31.2 347.997 31.025L348.284 27.525C348.734 27.7583 349.189 27.9708 349.647 28.1625C350.105 28.3542 350.559 28.5208 351.009 28.6625C351.468 28.7958 351.918 28.9 352.359 28.975C352.809 29.05 353.239 29.0875 353.647 29.0875C354.73 29.0875 355.505 28.8875 355.972 28.4875C356.439 28.0792 356.672 27.5583 356.672 26.925C356.672 26.1833 356.372 25.625 355.772 25.25C355.172 24.8667 354.314 24.675 353.197 24.675C352.83 24.675 352.472 24.675 352.122 24.675C351.78 24.675 351.434 24.675 351.084 24.675V21.85C351.393 21.85 351.701 21.85 352.009 21.85C352.326 21.85 352.643 21.85 352.959 21.85C353.718 21.85 354.334 21.7625 354.809 21.5875C355.284 21.4042 355.63 21.15 355.847 20.825C356.072 20.5 356.184 20.1208 356.184 19.6875C356.184 19.0208 355.939 18.525 355.447 18.2C354.964 17.8667 354.322 17.7 353.522 17.7C353.13 17.7 352.726 17.7417 352.309 17.825C351.901 17.9083 351.489 18.025 351.072 18.175C350.655 18.3167 350.243 18.4875 349.834 18.6875C349.426 18.8875 349.03 19.1125 348.647 19.3625L348.297 15.8125C348.672 15.6292 349.084 15.4542 349.534 15.2875C349.984 15.1208 350.464 14.975 350.972 14.85C351.48 14.725 352.005 14.625 352.547 14.55C353.089 14.475 353.63 14.4375 354.172 14.4375C355.439 14.4375 356.518 14.6208 357.409 14.9875C358.301 15.3458 358.98 15.8583 359.447 16.525C359.922 17.1833 360.159 17.9625 360.159 18.8625C360.159 19.5792 360.018 20.2 359.734 20.725C359.451 21.25 359.068 21.6792 358.584 22.0125C358.109 22.3375 357.58 22.5625 356.997 22.6875V22.9875C357.439 23.0708 357.876 23.2167 358.309 23.425C358.743 23.625 359.134 23.9 359.484 24.25C359.834 24.6 360.114 25.025 360.322 25.525C360.53 26.025 360.634 26.6125 360.634 27.2875C360.634 28.2542 360.397 29.1208 359.922 29.8875C359.455 30.6458 358.734 31.2417 357.759 31.675C356.793 32.1083 355.555 32.325 354.047 32.325Z" fill="black"/>
<line x1="506.043" y1="22.9938" x2="654" y2="22.9938" stroke="white" stroke-width="3" stroke-dasharray="18 18"/>
<g filter="url(#filter3_d)">
<circle cx="503.198" cy="23.7825" r="17.7825" transform="rotate(-90 503.198 23.7825)" fill="white"/>
</g>
<path d="M502.387 32C502.387 31.1667 502.387 30.3708 502.387 29.6125C502.387 28.8458 502.387 27.9667 502.387 26.975L502.599 26.425V21.6C502.599 20.7417 502.599 19.8875 502.599 19.0375C502.599 18.1792 502.599 17.3208 502.599 16.4625L505.287 15.4C504.845 16.0333 504.416 16.65 503.999 17.25C503.583 17.8417 503.162 18.4333 502.737 19.025L499.987 22.9375C499.612 23.4625 499.241 23.9833 498.874 24.5C498.516 25.0167 498.154 25.5417 497.787 26.075L497.662 25.2375H503.349L503.749 25.0875C504.241 25.0875 504.787 25.0875 505.387 25.0875C505.987 25.0875 506.579 25.0875 507.162 25.0875C507.745 25.0875 508.262 25.0875 508.712 25.0875V28.3875C508.262 28.3875 507.745 28.3875 507.162 28.3875C506.579 28.3875 505.987 28.3875 505.387 28.3875C504.787 28.3875 504.241 28.3875 503.749 28.3875H494.637V25.8125C494.962 25.3458 495.324 24.8292 495.724 24.2625C496.133 23.6875 496.541 23.1125 496.949 22.5375C497.366 21.9542 497.749 21.4167 498.099 20.925L500.162 17.9875C500.545 17.4542 500.924 16.925 501.299 16.4C501.674 15.8667 502.049 15.3333 502.424 14.8H506.224C506.224 15.8333 506.224 16.85 506.224 17.85C506.224 18.8417 506.224 19.8333 506.224 20.825V26.975C506.224 27.9667 506.224 28.8458 506.224 29.6125C506.224 30.3708 506.224 31.1667 506.224 32H502.387Z" fill="black"/>
<defs>
<filter id="filter0_d" x="0" y="0" width="47.5649" height="47.5649" filterUnits="userSpaceOnUse" color-interpolation-filters="sRGB">
<feFlood flood-opacity="0" result="BackgroundImageFix"/>
<feColorMatrix in="SourceAlpha" type="matrix" values="0 0 0 0 0 0 0 0 0 0 0 0 0 0 0 0 0 0 127 0" result="hardAlpha"/>
<feMorphology radius="1" operator="dilate" in="SourceAlpha" result="effect1_dropShadow"/>
<feOffset/>
<feGaussianBlur stdDeviation="2.5"/>
<feComposite in2="hardAlpha" operator="out"/>
<feColorMatrix type="matrix" values="0 0 0 0 0 0 0 0 0 0 0 0 0 0 0 0 0 0 0.59 0"/>
<feBlend mode="normal" in2="BackgroundImageFix" result="effect1_dropShadow"/>
<feBlend mode="normal" in="SourceGraphic" in2="effect1_dropShadow" result="shape"/>
</filter>
<filter id="filter1_d" x="154.352" y="0" width="47.5649" height="47.5649" filterUnits="userSpaceOnUse" color-interpolation-filters="sRGB">
<feFlood flood-opacity="0" result="BackgroundImageFix"/>
<feColorMatrix in="SourceAlpha" type="matrix" values="0 0 0 0 0 0 0 0 0 0 0 0 0 0 0 0 0 0 127 0" result="hardAlpha"/>
<feMorphology radius="1" operator="dilate" in="SourceAlpha" result="effect1_dropShadow"/>
<feOffset/>
<feGaussianBlur stdDeviation="2.5"/>
<feComposite in2="hardAlpha" operator="out"/>
<feColorMatrix type="matrix" values="0 0 0 0 0 0 0 0 0 0 0 0 0 0 0 0 0 0 0.59 0"/>
<feBlend mode="normal" in2="BackgroundImageFix" result="effect1_dropShadow"/>
<feBlend mode="normal" in="SourceGraphic" in2="effect1_dropShadow" result="shape"/>
</filter>
<filter id="filter2_d" x="330.043" y="0" width="47.5649" height="47.5649" filterUnits="userSpaceOnUse" color-interpolation-filters="sRGB">
<feFlood flood-opacity="0" result="BackgroundImageFix"/>
<feColorMatrix in="SourceAlpha" type="matrix" values="0 0 0 0 0 0 0 0 0 0 0 0 0 0 0 0 0 0 127 0" result="hardAlpha"/>
<feMorphology radius="1" operator="dilate" in="SourceAlpha" result="effect1_dropShadow"/>
<feOffset/>
<feGaussianBlur stdDeviation="2.5"/>
<feComposite in2="hardAlpha" operator="out"/>
<feColorMatrix type="matrix" values="0 0 0 0 0 0 0 0 0 0 0 0 0 0 0 0 0 0 0.59 0"/>
<feBlend mode="normal" in2="BackgroundImageFix" result="effect1_dropShadow"/>
<feBlend mode="normal" in="SourceGraphic" in2="effect1_dropShadow" result="shape"/>
</filter>
<filter id="filter3_d" x="479.415" y="0" width="47.5649" height="47.5649" filterUnits="userSpaceOnUse" color-interpolation-filters="sRGB">
<feFlood flood-opacity="0" result="BackgroundImageFix"/>
<feColorMatrix in="SourceAlpha" type="matrix" values="0 0 0 0 0 0 0 0 0 0 0 0 0 0 0 0 0 0 127 0" result="hardAlpha"/>
<feMorphology radius="1" operator="dilate" in="SourceAlpha" result="effect1_dropShadow"/>
<feOffset/>
<feGaussianBlur stdDeviation="2.5"/>
<feComposite in2="hardAlpha" operator="out"/>
<feColorMatrix type="matrix" values="0 0 0 0 0 0 0 0 0 0 0 0 0 0 0 0 0 0 0.59 0"/>
<feBlend mode="normal" in2="BackgroundImageFix" result="effect1_dropShadow"/>
<feBlend mode="normal" in="SourceGraphic" in2="effect1_dropShadow" result="shape"/>
</filter>
</defs>
</svg>

<svg xmlns="http://www.w3.org/2000/svg" fill="none" viewBox="0 0 654 48"><path stroke="#fff" stroke-width="3" d="M35.163 22.994h473.014"/><g filter="url(#filter0_d)"><circle cx="23.782" cy="23.782" r="17.782" fill="#fff" transform="rotate(-90 23.782 23.782)"/></g><g filter="url(#filter1_d)"><circle cx="178.134" cy="23.782" r="17.782" fill="#fff" transform="rotate(-90 178.134 23.782)"/></g><g filter="url(#filter2_d)"><circle cx="353.825" cy="23.782" r="17.782" fill="#fff" transform="rotate(-90 353.825 23.782)"/></g><path fill="#000" d="M18.04 20.975l-.887-2.988c1.134-.55 2.267-1.095 3.4-1.637l3.4-1.65-.137 3.438c-.967.474-1.93.95-2.888 1.424a914.9 914.9 0 0 0-2.887 1.413zM21.967 32v-2.587V21.55v-2.563V16.4l1.987-1.7 1.863.113V32h-3.85zM172.293 33v-2.6c.458-.392.913-.78 1.363-1.162l1.375-1.15a39.84 39.84 0 0 0 2.75-2.526c.766-.783 1.354-1.537 1.762-2.262.408-.725.613-1.454.613-2.188 0-.8-.225-1.4-.675-1.8-.45-.408-1.13-.612-2.038-.612-.392 0-.796.046-1.212.137a7.209 7.209 0 0 0-1.238.375c-.417.159-.833.346-1.25.563-.408.217-.808.458-1.2.725l-.337-3.675c.383-.183.804-.354 1.262-.512.467-.167.958-.313 1.475-.438a14.526 14.526 0 0 1 1.613-.313 12.557 12.557 0 0 1 1.675-.112c1.266 0 2.337.208 3.212.625.883.408 1.55 1 2 1.775.458.767.688 1.688.688 2.762 0 .884-.184 1.763-.55 2.638-.367.867-.925 1.738-1.675 2.613-.742.875-1.684 1.758-2.825 2.65l-2.463 1.937-.475-.75h8.188V33h-12.038zM354.047 32.325c-.6 0-1.188-.033-1.763-.1a16.379 16.379 0 0 1-1.637-.275c-.517-.125-1-.267-1.45-.425a11.793 11.793 0 0 1-1.2-.5l.287-3.5c.45.233.905.446 1.363.638.458.191.912.358 1.362.5.459.133.909.237 1.35.312.45.075.88.112 1.288.112 1.083 0 1.858-.2 2.325-.6.467-.408.7-.929.7-1.562 0-.742-.3-1.3-.9-1.675-.6-.383-1.458-.575-2.575-.575h-2.113V21.85h1.875c.759 0 1.375-.088 1.85-.263.475-.183.821-.437 1.038-.762.225-.325.337-.704.337-1.137 0-.667-.245-1.163-.737-1.488-.483-.333-1.125-.5-1.925-.5-.392 0-.796.042-1.213.125-.408.083-.82.2-1.237.35-.417.142-.829.313-1.238.512-.408.2-.804.425-1.187.675l-.35-3.55a13.494 13.494 0 0 1 2.675-.962 15.454 15.454 0 0 1 1.575-.3 11.835 11.835 0 0 1 1.625-.113c1.267 0 2.346.184 3.237.55.892.359 1.571.871 2.038 1.538.475.658.712 1.438.712 2.338 0 .716-.141 1.337-.425 1.862a3.63 3.63 0 0 1-1.15 1.287 4.423 4.423 0 0 1-1.587.675v.3c.442.084.879.23 1.312.438.434.2.825.475 1.175.825.35.35.63.775.838 1.275.208.5.312 1.088.312 1.763 0 .966-.237 1.833-.712 2.6-.467.758-1.188 1.354-2.163 1.787-.966.433-2.204.65-3.712.65z"/><path stroke="#fff" stroke-dasharray="18 18" stroke-width="3" d="M506.043 22.994H654"/><g filter="url(#filter3_d)"><circle cx="503.198" cy="23.782" r="17.782" fill="#fff" transform="rotate(-90 503.198 23.782)"/></g><path fill="#000" d="M502.387 32v-2.387-2.638l.212-.55V21.6v-2.563-2.575l2.688-1.062c-.442.633-.871 1.25-1.288 1.85-.416.592-.837 1.183-1.262 1.775l-2.75 3.913a721.4 721.4 0 0 0-1.113 1.562l-1.087 1.575-.125-.837h5.687l.4-.15h4.963v3.3h-14.075v-2.576c.325-.466.687-.983 1.087-1.55l1.225-1.724 1.15-1.613 2.063-2.938 1.137-1.587 1.125-1.6h3.8V32h-3.837z"/><defs><filter id="filter0_d" width="47.565" height="47.565" x="0" y="0" color-interpolation-filters="sRGB" filterUnits="userSpaceOnUse"><feFlood flood-opacity="0" result="BackgroundImageFix"/><feColorMatrix in="SourceAlpha" result="hardAlpha" values="0 0 0 0 0 0 0 0 0 0 0 0 0 0 0 0 0 0 127 0"/><feMorphology in="SourceAlpha" operator="dilate" radius="1" result="effect1_dropShadow"/><feOffset/><feGaussianBlur stdDeviation="2.5"/><feComposite in2="hardAlpha" operator="out"/><feColorMatrix values="0 0 0 0 0 0 0 0 0 0 0 0 0 0 0 0 0 0 0.59 0"/><feBlend in2="BackgroundImageFix" result="effect1_dropShadow"/><feBlend in="SourceGraphic" in2="effect1_dropShadow" result="shape"/></filter><filter id="filter1_d" width="47.565" height="47.565" x="154.352" y="0" color-interpolation-filters="sRGB" filterUnits="userSpaceOnUse"><feFlood flood-opacity="0" result="BackgroundImageFix"/><feColorMatrix in="SourceAlpha" result="hardAlpha" values="0 0 0 0 0 0 0 0 0 0 0 0 0 0 0 0 0 0 127 0"/><feMorphology in="SourceAlpha" operator="dilate" radius="1" result="effect1_dropShadow"/><feOffset/><feGaussianBlur stdDeviation="2.5"/><feComposite in2="hardAlpha" operator="out"/><feColorMatrix values="0 0 0 0 0 0 0 0 0 0 0 0 0 0 0 0 0 0 0.59 0"/><feBlend in2="BackgroundImageFix" result="effect1_dropShadow"/><feBlend in="SourceGraphic" in2="effect1_dropShadow" result="shape"/></filter><filter id="filter2_d" width="47.565" height="47.565" x="330.043" y="0" color-interpolation-filters="sRGB" filterUnits="userSpaceOnUse"><feFlood flood-opacity="0" result="BackgroundImageFix"/><feColorMatrix in="SourceAlpha" result="hardAlpha" values="0 0 0 0 0 0 0 0 0 0 0 0 0 0 0 0 0 0 127 0"/><feMorphology in="SourceAlpha" operator="dilate" radius="1" result="effect1_dropShadow"/><feOffset/><feGaussianBlur stdDeviation="2.5"/><feComposite in2="hardAlpha" operator="out"/><feColorMatrix values="0 0 0 0 0 0 0 0 0 0 0 0 0 0 0 0 0 0 0.59 0"/><feBlend in2="BackgroundImageFix" result="effect1_dropShadow"/><feBlend in="SourceGraphic" in2="effect1_dropShadow" result="shape"/></filter><filter id="filter3_d" width="47.565" height="47.565" x="479.415" y="0" color-interpolation-filters="sRGB" filterUnits="userSpaceOnUse"><feFlood flood-opacity="0" result="BackgroundImageFix"/><feColorMatrix in="SourceAlpha" result="hardAlpha" values="0 0 0 0 0 0 0 0 0 0 0 0 0 0 0 0 0 0 127 0"/><feMorphology in="SourceAlpha" operator="dilate" radius="1" result="effect1_dropShadow"/><feOffset/><feGaussianBlur stdDeviation="2.5"/><feComposite in2="hardAlpha" operator="out"/><feColorMatrix values="0 0 0 0 0 0 0 0 0 0 0 0 0 0 0 0 0 0 0.59 0"/><feBlend in2="BackgroundImageFix" result="effect1_dropShadow"/><feBlend in="SourceGraphic" in2="effect1_dropShadow" result="shape"/></filter></defs></svg>
